X: 412
T: "Gazaremsan" 
T: Polska efter Lôrk-Olle 
C: Trad. 
C: arr. K. Pettersson, 2007
R: Polska 
S: efter Lôrk-Olle 
Z: .andersson 
M: 3/4 
L: 1/16 
Q: 116
K: Dm 

V: 1
|: A2B^c (dc)de (fe)fg | a3g e2f2 d2^c2 | A2B^c (dc)de (fe)fa | g2f2 f2e2 e4 :| 
K: D
|: A2d2 d2c2 c2B2 | B3A (GF)GB A4 | D3E F4 F4 | E3D (CD)EF D4 | 
D2d2- d2c2 c2B2 | B3A (GF)GB A4 | A2_Bc (dc)de (=fe)fg | a2^c2 d8 :| 

V: 2 
|: E3^G (AG)A^c (dc)de | f3e ^c2d2 F2G2 | E3^G (AG)A^c (dc)df | e2d2 d2^c2 c4 :| 
K: D
|: D2F2 F2E2 E2D2 | G3F (ED)EG F4 | A,3C D4 D4 | C3B, (A,B,)CA, D4 | 
D2F2- F2E2 E2D2 | G3F (ED)EG F4 | E3^G (AG)A^c (dc)de | =f2E2 F8 :| 

V: 3
K: bass
|: A,,4 A,,2G,,2 F,,2E,,2 | D,,4 D,,2D,,2 D,,2D,,2 | A,,4 A,,2A,,2 A,,2A,,2 | A,,4 E,,4 A,,4 :| 
K: D
|: D,,4 D,,2D,,2 E,,2F,,2 | G,,4 G,,2A,,2 D,,4 | D,,4 D,,2D,,2 D,,4 | A,,4 A,,2A,,2 D,,4 | 
D,,2D,,4-D,,2 E,,2F,,2 | G,,4 G,,2A,,2 D,,4 | A,,4 A,,2A,,2 A,,2A,,2 | A,,4 D,,8 :| 

(:musicend:)
(:music:)
